; generated by Slic3r 1.3.0-dev on 2017-12-20 at 00:31:33

; external perimeters extrusion width = 0.40mm (1.07mm^3/s)
; perimeters extrusion width = 0.67mm (3.77mm^3/s)
; infill extrusion width = 0.67mm (5.03mm^3/s)
; solid infill extrusion width = 0.67mm (2.51mm^3/s)
; top infill extrusion width = 0.67mm (1.88mm^3/s)

M104 S200 ; set temperature
M106 S255;
G1 Z5 F5000; lift nozzle
G 28;
G 29;
; Filament gcode

M109 S200 ; set temperature and wait for it to be reached
G21 ; set units to millimeters
G90 ; use absolute coordinates
M82 ; use absolute distances for extrusion
G92 E0
M106 S255
G1 Z0.300 F3600.000
G1 E-4.00000 F3000.00000
G92 E0
G1 X18.476 Y14.964 F3600.000
G1 E4.10000 F3000.00000
G1 F1800
G1 X18.820 Y14.611 E4.11463
G1 X23.354 Y10.415 E4.29805
G1 X23.732 Y10.100 E4.31267
G1 X28.673 Y6.392 E4.49609
G1 X29.082 Y6.117 E4.51072
G1 X34.378 Y2.937 E4.69414
G1 X34.813 Y2.705 E4.70876
G1 X40.407 Y0.086 E4.89218
G1 X40.864 Y-0.099 E4.90681
G1 X46.698 Y-2.129 E5.09023
G1 X47.171 Y-2.266 E5.10485
G1 X53.090 Y-3.663 E5.28541
G1 X53.668 Y-3.774 E5.30290
G1 X59.795 Y-4.567 E5.48631
G1 X60.286 Y-4.605 E5.50094
G1 X66.461 Y-4.764 E5.68436
G1 X66.954 Y-4.751 E5.69899
G1 X73.113 Y-4.274 E5.88240
G1 X73.602 Y-4.211 E5.89703
G1 X79.679 Y-3.104 E6.08045
G1 X80.158 Y-2.991 E6.09508
G1 X86.090 Y-1.264 E6.27849
G1 X86.555 Y-1.102 E6.29312
G1 X92.277 Y1.225 E6.47654
G1 X92.724 Y1.434 E6.49117
G1 X98.176 Y4.337 E6.67458
G1 X98.599 Y4.591 E6.68921
G1 X103.724 Y8.039 E6.87263
G1 X104.118 Y8.335 E6.88726
G1 X108.862 Y12.292 E7.07068
G1 X109.223 Y12.627 E7.08530
G1 X113.535 Y17.051 E7.26872
G1 X113.860 Y17.421 E7.28335
G1 X117.694 Y22.265 E7.46677
G1 X117.979 Y22.666 E7.48139
G1 X121.295 Y27.879 E7.66481
G1 X121.537 Y28.308 E7.67944
G1 X124.299 Y33.833 E7.86286
G1 X124.497 Y34.285 E7.87748
G1 X126.676 Y40.065 E8.06090
G1 X126.825 Y40.534 E8.07553
G1 X128.399 Y46.508 E8.25895
G1 X128.499 Y46.990 E8.27357
G1 X129.450 Y53.094 E8.45699
G1 X129.501 Y53.584 E8.47162
G1 X129.814 Y59.657 E8.65217
G1 X129.819 Y60.246 E8.66966
G1 X129.501 Y66.416 E8.85308
G1 X129.450 Y66.906 E8.86771
G1 X128.499 Y73.010 E9.05112
G1 X128.399 Y73.492 E9.06575
G1 X126.825 Y79.466 E9.24917
G1 X126.676 Y79.935 E9.26380
G1 X124.497 Y85.715 E9.44721
G1 X124.299 Y86.167 E9.46184
G1 X121.537 Y91.692 E9.64526
G1 X121.295 Y92.121 E9.65989
G1 X117.979 Y97.334 E9.84330
G1 X117.694 Y97.735 E9.85793
G1 X113.860 Y102.579 E10.04135
G1 X113.535 Y102.949 E10.05598
G1 X109.223 Y107.373 E10.23939
G1 X108.862 Y107.708 E10.25402
G1 X104.118 Y111.665 E10.43744
G1 X103.724 Y111.961 E10.45207
G1 X98.599 Y115.409 E10.63549
G1 X98.176 Y115.663 E10.65011
G1 X92.723 Y118.566 E10.83354
G1 X92.277 Y118.775 E10.84816
G1 X86.555 Y121.102 E11.03158
G1 X86.090 Y121.264 E11.04620
G1 X80.158 Y122.991 E11.22962
G1 X79.679 Y123.104 E11.24425
G1 X73.602 Y124.211 E11.42767
G1 X73.113 Y124.275 E11.44229
G1 X66.954 Y124.751 E11.62571
G1 X66.461 Y124.764 E11.64034
G1 X60.286 Y124.605 E11.82376
G1 X59.795 Y124.567 E11.83838
G1 X53.668 Y123.774 E12.02180
G1 X53.184 Y123.685 E12.03643
G1 X47.171 Y122.266 E12.21985
G1 X46.698 Y122.129 E12.23448
G1 X40.955 Y120.131 E12.41503
G1 X40.407 Y119.914 E12.43252
G1 X34.812 Y117.295 E12.61594
G1 X34.378 Y117.063 E12.63056
G1 X29.082 Y113.883 E12.81398
G1 X28.673 Y113.608 E12.82861
G1 X23.732 Y109.900 E13.01203
G1 X23.354 Y109.585 E13.02665
G1 X18.820 Y105.389 E13.21007
G1 X18.476 Y105.036 E13.22470
G1 X14.398 Y100.396 E13.40812
G1 X14.092 Y100.009 E13.42274
G1 X10.513 Y94.975 E13.60616
G1 X10.249 Y94.559 E13.62079
G1 X7.206 Y89.183 E13.80421
G1 X6.986 Y88.742 E13.81883
G1 X4.512 Y83.081 E14.00225
G1 X4.338 Y82.620 E14.01688
G1 X2.459 Y76.736 E14.20030
G1 X2.334 Y76.259 E14.21492
G1 X1.070 Y70.212 E14.39834
G1 X0.994 Y69.726 E14.41297
G1 X0.359 Y63.581 E14.59639
G1 X0.334 Y63.089 E14.61101
G1 X0.334 Y56.911 E14.79443
G1 X0.359 Y56.419 E14.80906
G1 X0.994 Y50.275 E14.99248
G1 X1.070 Y49.788 E15.00710
G1 X2.334 Y43.741 E15.19052
G1 X2.459 Y43.264 E15.20515
G1 X4.338 Y37.380 E15.38857
G1 X4.512 Y36.919 E15.40320
G1 X6.986 Y31.258 E15.58661
G1 X7.206 Y30.817 E15.60124
G1 X10.249 Y25.441 E15.78466
G1 X10.513 Y25.026 E15.79929
G1 X14.092 Y19.991 E15.98270
G1 X14.398 Y19.604 E15.99733
G1 X18.437 Y15.009 E16.17897
G1 X18.744 Y15.200 F3600.000
G1 F1800
G1 X19.063 Y14.874 E16.19250
G1 X23.596 Y10.677 E16.37592
G1 X23.946 Y10.385 E16.38946
G1 X28.887 Y6.677 E16.57287
G1 X29.265 Y6.423 E16.58641
G1 X34.561 Y3.243 E16.76983
G1 X34.964 Y3.029 E16.78336
G1 X40.559 Y0.410 E16.96678
G1 X40.981 Y0.238 E16.98032
G1 X46.816 Y-1.791 E17.16373
G1 X47.253 Y-1.919 E17.17727
G1 X53.172 Y-3.316 E17.35782
G1 X53.714 Y-3.420 E17.37422
G1 X59.841 Y-4.213 E17.55764
G1 X60.295 Y-4.248 E17.57117
G1 X66.471 Y-4.407 E17.75459
G1 X66.926 Y-4.395 E17.76813
G1 X73.085 Y-3.918 E17.95155
G1 X73.538 Y-3.860 E17.96508
G1 X79.615 Y-2.752 E18.14850
G1 X80.059 Y-2.648 E18.16204
G1 X85.990 Y-0.921 E18.34545
G1 X86.421 Y-0.771 E18.35899
G1 X92.143 Y1.556 E18.54241
G1 X92.556 Y1.749 E18.55594
G1 X98.009 Y4.652 E18.73936
G1 X98.399 Y4.887 E18.75290
G1 X103.525 Y8.336 E18.93632
G1 X103.889 Y8.609 E18.94985
G1 X108.633 Y12.567 E19.13327
G1 X108.967 Y12.876 E19.14680
G1 X113.279 Y17.300 E19.33022
G1 X113.580 Y17.643 E19.34376
G1 X117.414 Y22.487 E19.52717
G1 X117.678 Y22.858 E19.54071
G1 X120.993 Y28.071 E19.72413
G1 X121.218 Y28.467 E19.73766
G1 X123.980 Y33.993 E19.92109
G1 X124.162 Y34.411 E19.93462
G1 X126.342 Y40.191 E20.11803
G1 X126.480 Y40.625 E20.13157
G1 X128.053 Y46.599 E20.31499
G1 X128.147 Y47.045 E20.32853
G1 X129.097 Y53.149 E20.51194
G1 X129.144 Y53.603 E20.52548
G1 X129.457 Y59.676 E20.70603
G1 X129.462 Y60.228 E20.72243
G1 X129.144 Y66.397 E20.90585
G1 X129.097 Y66.851 E20.91938
G1 X128.147 Y72.955 E21.10280
G1 X128.053 Y73.401 E21.11634
G1 X126.480 Y79.375 E21.29976
G1 X126.342 Y79.809 E21.31329
G1 X124.162 Y85.589 E21.49671
G1 X123.980 Y86.007 E21.51024
G1 X121.218 Y91.533 E21.69366
G1 X120.993 Y91.930 E21.70720
G1 X117.678 Y97.142 E21.89061
G1 X117.414 Y97.514 E21.90415
G1 X113.580 Y102.357 E22.08757
G1 X113.279 Y102.700 E22.10110
G1 X108.967 Y107.124 E22.28452
G1 X108.633 Y107.434 E22.29806
G1 X103.889 Y111.391 E22.48148
G1 X103.525 Y111.664 E22.49501
G1 X98.399 Y115.113 E22.67843
G1 X98.009 Y115.348 E22.69197
G1 X92.556 Y118.251 E22.87539
G1 X92.143 Y118.444 E22.88892
G1 X86.420 Y120.771 E23.07234
G1 X85.990 Y120.921 E23.08587
G1 X80.059 Y122.648 E23.26929
G1 X79.615 Y122.752 E23.28283
G1 X73.538 Y123.860 E23.46624
G1 X73.085 Y123.919 E23.47978
G1 X66.926 Y124.395 E23.66320
G1 X66.471 Y124.407 E23.67673
G1 X60.295 Y124.248 E23.86015
G1 X59.841 Y124.213 E23.87369
G1 X53.714 Y123.420 E24.05710
G1 X53.266 Y123.338 E24.07064
G1 X47.253 Y121.919 E24.25406
G1 X46.816 Y121.792 E24.26759
G1 X41.072 Y119.794 E24.44815
G1 X40.559 Y119.590 E24.46455
G1 X34.964 Y116.971 E24.64797
G1 X34.561 Y116.757 E24.66150
G1 X29.265 Y113.577 E24.84492
G1 X28.887 Y113.323 E24.85845
G1 X23.946 Y109.615 E25.04187
G1 X23.596 Y109.323 E25.05541
G1 X19.062 Y105.126 E25.23883
G1 X18.744 Y104.800 E25.25236
G1 X14.666 Y100.160 E25.43578
G1 X14.383 Y99.802 E25.44931
G1 X10.804 Y94.768 E25.63273
G1 X10.559 Y94.383 E25.64627
G1 X7.517 Y89.007 E25.82968
G1 X7.313 Y88.599 E25.84322
G1 X4.839 Y82.938 E26.02664
G1 X4.678 Y82.512 E26.04017
G1 X2.799 Y76.627 E26.22359
G1 X2.683 Y76.186 E26.23713
G1 X1.420 Y70.139 E26.42054
G1 X1.350 Y69.689 E26.43408
G1 X0.714 Y63.544 E26.61750
G1 X0.691 Y63.089 E26.63104
G1 X0.691 Y56.911 E26.81445
G1 X0.714 Y56.456 E26.82799
G1 X1.350 Y50.311 E27.01141
G1 X1.420 Y49.861 E27.02494
G1 X2.683 Y43.814 E27.20836
G1 X2.799 Y43.373 E27.22190
G1 X4.678 Y37.488 E27.40531
G1 X4.839 Y37.062 E27.41885
G1 X7.313 Y31.401 E27.60227
G1 X7.517 Y30.993 E27.61580
G1 X10.559 Y25.617 E27.79922
G1 X10.804 Y25.232 E27.81276
G1 X14.383 Y20.198 E27.99617
G1 X14.666 Y19.840 E28.00971
G1 X18.705 Y15.245 E28.19135
G1 X19.013 Y15.436 F3600.000
G1 F1800
G1 X19.305 Y15.136 E28.20379
G1 X23.839 Y10.939 E28.38721
G1 X24.161 Y10.671 E28.39965
G1 X29.102 Y6.963 E28.58307
G1 X29.449 Y6.729 E28.59552
G1 X34.745 Y3.549 E28.77893
G1 X35.115 Y3.352 E28.79138
G1 X40.710 Y0.733 E28.97479
G1 X41.098 Y0.575 E28.98724
G1 X46.933 Y-1.454 E29.17066
G1 X47.335 Y-1.571 E29.18310
G1 X53.254 Y-2.968 E29.36365
G1 X53.760 Y-3.065 E29.37896
G1 X59.886 Y-3.859 E29.56238
G1 X60.304 Y-3.891 E29.57482
G1 X66.480 Y-4.050 E29.75824
G1 X66.899 Y-4.039 E29.77068
G1 X73.058 Y-3.562 E29.95410
G1 X73.474 Y-3.509 E29.96655
G1 X79.551 Y-2.401 E30.14996
G1 X79.959 Y-2.305 E30.16241
G1 X85.890 Y-0.578 E30.34582
G1 X86.286 Y-0.441 E30.35827
G1 X92.008 Y1.887 E30.54169
G1 X92.388 Y2.064 E30.55413
G1 X97.841 Y4.968 E30.73755
G1 X98.200 Y5.183 E30.74999
G1 X103.325 Y8.632 E30.93341
G1 X103.661 Y8.883 E30.94586
G1 X108.404 Y12.841 E31.12927
G1 X108.712 Y13.125 E31.14172
G1 X113.023 Y17.549 E31.32514
G1 X113.300 Y17.864 E31.33758
G1 X117.134 Y22.708 E31.52100
G1 X117.377 Y23.050 E31.53344
G1 X120.692 Y28.262 E31.71686
G1 X120.899 Y28.627 E31.72930
G1 X123.660 Y34.153 E31.91273
G1 X123.828 Y34.537 E31.92517
G1 X126.007 Y40.317 E32.10858
G1 X126.135 Y40.716 E32.12103
G1 X127.708 Y46.690 E32.30445
G1 X127.794 Y47.100 E32.31689
G1 X128.744 Y53.204 E32.50031
G1 X128.788 Y53.621 E32.51275
G1 X129.101 Y59.694 E32.69330
G1 X129.106 Y60.210 E32.70861
G1 X128.788 Y66.379 E32.89203
G1 X128.744 Y66.796 E32.90447
G1 X127.794 Y72.900 E33.08789
G1 X127.708 Y73.310 E33.10034
G1 X126.135 Y79.284 E33.28376
G1 X126.007 Y79.683 E33.29620
G1 X123.828 Y85.463 E33.47961
G1 X123.660 Y85.848 E33.49206
G1 X120.899 Y91.373 E33.67548
G1 X120.692 Y91.738 E33.68792
G1 X117.377 Y96.950 E33.87134
G1 X117.134 Y97.292 E33.88378
G1 X113.300 Y102.136 E34.06720
G1 X113.023 Y102.451 E34.07965
G1 X108.712 Y106.875 E34.26306
G1 X108.404 Y107.159 E34.27551
G1 X103.661 Y111.117 E34.45893
G1 X103.325 Y111.368 E34.47137
G1 X98.200 Y114.817 E34.65479
G1 X97.841 Y115.033 E34.66723
G1 X92.388 Y117.936 E34.85065
G1 X92.008 Y118.113 E34.86309
G1 X86.286 Y120.441 E35.04651
G1 X85.890 Y120.578 E35.05896
G1 X79.959 Y122.305 E35.24237
G1 X79.551 Y122.401 E35.25482
G1 X73.474 Y123.509 E35.43824
G1 X73.058 Y123.563 E35.45068
G1 X66.899 Y124.039 E35.63410
G1 X66.480 Y124.050 E35.64654
G1 X60.304 Y123.891 E35.82996
G1 X59.886 Y123.859 E35.84240
G1 X53.760 Y123.065 E36.02582
G1 X53.348 Y122.990 E36.03827
G1 X47.335 Y121.571 E36.22168
G1 X46.933 Y121.454 E36.23413
G1 X41.190 Y119.456 E36.41468
G1 X40.710 Y119.267 E36.42999
G1 X35.115 Y116.648 E36.61341
G1 X34.745 Y116.451 E36.62585
G1 X29.449 Y113.271 E36.80927
G1 X29.102 Y113.037 E36.82171
G1 X24.160 Y109.329 E37.00513
G1 X23.839 Y109.061 E37.01757
G1 X19.305 Y104.864 E37.20099
G1 X19.013 Y104.564 E37.21344
G1 X14.934 Y99.924 E37.39685
G1 X14.674 Y99.596 E37.40930
G1 X11.095 Y94.561 E37.59272
G1 X10.870 Y94.207 E37.60516
G1 X7.827 Y88.831 E37.78858
G1 X7.640 Y88.456 E37.80102
G1 X5.166 Y82.795 E37.98444
G1 X5.018 Y82.403 E37.99688
G1 X3.140 Y76.518 E38.18030
G1 X3.033 Y76.113 E38.19275
G1 X1.769 Y70.066 E38.37616
G1 X1.705 Y69.652 E38.38861
G1 X1.070 Y63.507 E38.57202
G1 X1.048 Y63.089 E38.58447
G1 X1.048 Y56.911 E38.76789
G1 X1.070 Y56.493 E38.78033
G1 X1.705 Y50.348 E38.96375
G1 X1.769 Y49.934 E38.97619
G1 X3.033 Y43.887 E39.15961
G1 X3.140 Y43.482 E39.17206
G1 X5.018 Y37.597 E39.35547
G1 X5.166 Y37.205 E39.36792
G1 X7.640 Y31.544 E39.55133
G1 X7.827 Y31.169 E39.56378
G1 X10.870 Y25.793 E39.74720
G1 X11.095 Y25.439 E39.75964
G1 X14.674 Y20.404 E39.94306
G1 X14.935 Y20.076 E39.95550
G1 X18.973 Y15.481 E40.13714
G1 X19.281 Y15.671 F3600.000
G1 F1800
G1 X19.548 Y15.398 E40.14849
G1 X24.081 Y11.201 E40.33191
G1 X24.375 Y10.956 E40.34326
G1 X29.316 Y7.249 E40.52668
G1 X29.633 Y7.035 E40.53803
G1 X34.929 Y3.855 E40.72145
G1 X35.267 Y3.675 E40.73280
G1 X40.862 Y1.057 E40.91622
G1 X41.216 Y0.913 E40.92758
G1 X47.050 Y-1.117 E41.11099
G1 X47.418 Y-1.224 E41.12235
G1 X53.336 Y-2.621 E41.30290
G1 X53.806 Y-2.711 E41.31711
G1 X59.932 Y-3.504 E41.50053
G1 X60.314 Y-3.534 E41.51188
G1 X66.489 Y-3.693 E41.69530
G1 X66.871 Y-3.683 E41.70665
G1 X73.030 Y-3.206 E41.89007
G1 X73.410 Y-3.157 E41.90142
G1 X79.487 Y-2.050 E42.08484
G1 X79.859 Y-1.962 E42.09620
G1 X85.790 Y-0.235 E42.27961
G1 X86.152 Y-0.110 E42.29097
G1 X91.874 Y2.217 E42.47438
G1 X92.220 Y2.379 E42.48574
G1 X97.673 Y5.283 E42.66915
G1 X98.001 Y5.480 E42.68051
G1 X103.126 Y8.928 E42.86392
G1 X103.432 Y9.158 E42.87528
G1 X108.175 Y13.115 E43.05869
G1 X108.456 Y13.375 E43.07005
G1 X112.768 Y17.799 E43.25346
G1 X113.020 Y18.086 E43.26482
G1 X116.854 Y22.930 E43.44823
G1 X117.075 Y23.241 E43.45959
G1 X120.391 Y28.454 E43.64301
G1 X120.579 Y28.787 E43.65436
G1 X123.341 Y34.312 E43.83778
G1 X123.494 Y34.663 E43.84913
G1 X125.673 Y40.443 E44.03255
G1 X125.790 Y40.807 E44.04390
G1 X127.363 Y46.781 E44.22732
G1 X127.441 Y47.155 E44.23867
G1 X128.392 Y53.259 E44.42209
G1 X128.431 Y53.640 E44.43344
G1 X128.744 Y59.712 E44.61399
G1 X128.749 Y60.191 E44.62821
G1 X128.431 Y66.361 E44.81162
G1 X128.392 Y66.741 E44.82298
G1 X127.441 Y72.845 E45.00640
G1 X127.363 Y73.219 E45.01775
G1 X125.790 Y79.193 E45.20117
G1 X125.673 Y79.557 E45.21252
G1 X123.494 Y85.337 E45.39594
G1 X123.341 Y85.688 E45.40729
G1 X120.579 Y91.213 E45.59071
G1 X120.391 Y91.546 E45.60206
G1 X117.075 Y96.759 E45.78548
G1 X116.854 Y97.070 E45.79683
G1 X113.020 Y101.914 E45.98025
G1 X112.768 Y102.201 E45.99160
G1 X108.456 Y106.625 E46.17502
G1 X108.175 Y106.885 E46.18637
G1 X103.432 Y110.842 E46.36979
G1 X103.126 Y111.072 E46.38114
G1 X98.001 Y114.520 E46.56456
G1 X97.673 Y114.717 E46.57591
G1 X92.220 Y117.621 E46.75933
G1 X91.874 Y117.783 E46.77068
G1 X86.151 Y120.110 E46.95410
G1 X85.790 Y120.236 E46.96545
G1 X79.859 Y121.962 E47.14887
G1 X79.487 Y122.050 E47.16022
G1 X73.410 Y123.157 E47.34364
G1 X73.030 Y123.206 E47.35499
G1 X66.871 Y123.683 E47.53841
G1 X66.489 Y123.693 E47.54977
G1 X60.314 Y123.534 E47.73318
G1 X59.932 Y123.505 E47.74454
G1 X53.806 Y122.711 E47.92795
G1 X53.430 Y122.643 E47.93931
G1 X47.417 Y121.224 E48.12272
G1 X47.050 Y121.117 E48.13408
G1 X41.307 Y119.119 E48.31463
G1 X40.862 Y118.943 E48.32884
G1 X35.267 Y116.325 E48.51226
G1 X34.929 Y116.145 E48.52361
G1 X29.633 Y112.965 E48.70703
G1 X29.316 Y112.751 E48.71839
G1 X24.375 Y109.044 E48.90180
G1 X24.081 Y108.799 E48.91316
G1 X19.548 Y104.602 E49.09658
G1 X19.281 Y104.329 E49.10793
G1 X15.203 Y99.688 E49.29134
G1 X14.965 Y99.389 E49.30270
G1 X11.386 Y94.354 E49.48611
G1 X11.181 Y94.031 E49.49747
G1 X8.138 Y88.655 E49.68088
G1 X7.967 Y88.313 E49.69224
G1 X5.493 Y82.652 E49.87565
G1 X5.358 Y82.295 E49.88701
G1 X3.480 Y76.410 E50.07043
G1 X3.382 Y76.040 E50.08178
G1 X2.119 Y69.993 E50.26520
G1 X2.060 Y69.615 E50.27655
G1 X1.425 Y63.471 E50.45997
G1 X1.405 Y63.089 E50.47132
G1 X1.405 Y56.911 E50.65474
G1 X1.425 Y56.529 E50.66609
G1 X2.060 Y50.385 E50.84951
G1 X2.119 Y50.007 E50.86086
G1 X3.382 Y43.960 E51.04428
G1 X3.480 Y43.590 E51.05563
G1 X5.358 Y37.705 E51.23905
G1 X5.493 Y37.348 E51.25040
G1 X7.967 Y31.687 E51.43382
G1 X8.138 Y31.345 E51.44517
G1 X11.181 Y25.969 E51.62859
G1 X11.386 Y25.646 E51.63994
G1 X14.965 Y20.611 E51.82336
G1 X15.203 Y20.312 E51.83471
G1 X19.241 Y15.717 E52.01635
G1 X19.549 Y15.907 F3600.000
G1 F1800
G1 X19.790 Y15.660 E52.02661
G1 X24.324 Y11.463 E52.21003
G1 X24.589 Y11.242 E52.22029
G1 X29.530 Y7.534 E52.40371
G1 X29.817 Y7.341 E52.41397
G1 X35.113 Y4.161 E52.59738
G1 X35.418 Y3.999 E52.60765
G1 X41.013 Y1.380 E52.79106
G1 X41.333 Y1.250 E52.80133
G1 X47.168 Y-0.780 E52.98474
G1 X47.500 Y-0.876 E52.99500
G1 X53.418 Y-2.273 E53.17556
G1 X53.852 Y-2.357 E53.18868
G1 X59.978 Y-3.150 E53.37210
G1 X60.323 Y-3.177 E53.38236
G1 X66.498 Y-3.336 E53.56578
G1 X66.844 Y-3.327 E53.57604
G1 X73.003 Y-2.850 E53.75946
G1 X73.346 Y-2.806 E53.76972
G1 X79.423 Y-1.699 E53.95313
G1 X79.759 Y-1.619 E53.96340
G1 X85.691 Y0.107 E54.14681
G1 X86.017 Y0.221 E54.15708
G1 X91.739 Y2.548 E54.34049
G1 X92.052 Y2.695 E54.35075
G1 X97.505 Y5.598 E54.53417
G1 X97.801 Y5.776 E54.54443
G1 X102.927 Y9.224 E54.72785
G1 X103.203 Y9.432 E54.73811
G1 X107.947 Y13.389 E54.92153
